!!!!SEGMENT: pl-sa--599-a-ix-79--001_anonim--krakowiak.krn
!!!cenid: 18xx:663
!!!COM: Anonim
!!!COM-rismid: pe30004985
!!!CDT:
!!!CNT:
!!!OTL: Krakowiak
!!!PDT:
!!!AGN: Secular; Krakowiak
!!!SMS-siglum: PL-SA
!!!SMS-shelfmark: 599/A IX 79
!!!SMS-shelfwork: 001 W
!!!SMS-variant:
!!!SMS-altvar:
!!!NIFC-rismid: 1001065536
!!!URL-scan: http://bc.bdsandomierz.pl/dlibra/publication/1407/edition/1375/content
!!!ONB-nifc: Str. 1, s. 1-2
!!!AIN: 2 piano
!!!key:
**kern	**kern
*part2	*part1
*staff2	*staff1
*Ipiano	*Ipiano
*I"Piano	*I"Piano
*clefF4	*clefG2
*k[]	*k[]
*C:	*C:
*M2/4	*M2/4
=1	=1
!LO:SIC:o:s:=:v:all\right	!LO:SIC:O:s:=:v:all\right&colon;global
8C\L	8ee\ 8cc\
.	8qff#X/
8g\ 8e\ 8c\	4gg\ 4ee\
8g\ 8e\ 8c\	.
.	8qaa/
8g\J 8e\ 8c\	16gg\LL
.	16ff#\JJ
=2	=2
*rep	*
8C\L	8gg\L
8g\ 8e\ 8c\	8ee\J
8g\ 8e\ 8c\	4cc\
8g\J 8e\ 8c\	.
*Xrep	*
=3	=3
!LO:TX:a:t=P:problem=mixed beam	!
8F\L	8ff\
*clefG2	*
8a/ 8f/	4aa\ 4ff\
8a/ 8f/	.
.	8qbb-X/
8a/J 8f/	16aa\LL
.	16gg\JJ
*clefF4	*
=4	=4
!LO:TX:a:t=P:problem=mixed beam	!
*rep	*
8F\L	8aa\L 8ff\
*clefG2	*
8a/ 8f/	8bb\J 8gg\
8a/ 8f/	4ccc\ 4aa\
8a/J 8f/	.
*Xrep	*
=5	=5
*clefF4	*
8C\L	8ee\ 8cc\
.	8qff#X/
8g\ 8e\ 8c\	4gg\ 4ee\
8g\ 8e\ 8c\	.
.	8qaa/
8g\J 8e\ 8c\	16gg\LL
.	16ff#\JJ
=6	=6
*rep	*
8C\L	8gg\L
8g\ 8e\ 8c\	8ee\J
8g\ 8e\ 8c\	4cc\
8g\J 8e\ 8c\	.
*Xrep	*
!!LO:LB:g=original
=7	=7
8G\L	(16gg\LL
.	16ff#X\JJ)
8f\ 8d\	4ffn\
8f\ 8d\	.
8f\J 8d\	16dd\LL
.	16b\JJ
=8	=8
8C\L	8cc\L
8g\ 8e\ 8c\	8ee\J
8g\ 8e\ 8c\	4cc\
8g\J 8e\ 8c\	.
=9||	=9||
8G\L	8g\
8f\ 8d\	4ff\
8f\ 8d\	.
8f\J 8d\	16dd\LL
.	16b\JJ
=10	=10
!LO:TX:a:t=P:problem=mixed beam	!
8C/L	8cc\L
8e\J 8c\	8dd\J
4e\ 4c\	4ee\
=11	=11
8G\L	8g\
8f\ 8d\	4ff\
8f\ 8d\	.
8f\J 8d\	16dd\LL
.	16b\JJ
=12	=12
!LO:TX:a:t=P:problem=mixed beam	!
8C/L	8cc\L
8e\J 8c\	16cc\L
.	16ee\JJ
4e\ 4c\	4cc\
*clefG2	*
=13	=13
8g\L	8gg\
8ff\ 8dd\	4fff\
8ff\ 8dd\	.
8ff\J 8dd\	16ddd\LL
.	16bb\JJ
=14	=14
!LO:TX:a:t=P:problem=mixed beam	!
8c/L	8ccc\L
8ee\J 8cc\	8ddd\J
4ee\ 4cc\	4eee\
=15	=15
8g\L	8gg\
8ff\ 8dd\	4fff\
8ff\ 8dd\	.
8ff\J 8dd\	16ddd\LL
.	16bb\JJ
=16	=16
!LO:TX:a:t=P:problem=mixed beam	!
8c/L	8ccc\L
8ee\J 8cc\	16ccc\L
.	16eee\JJ
4ee\ 4cc\	4ccc\
==	==
*-	*-
!!!system-decoration: [(s1,s2)]
!!!EED: Leszek Kubiak
!!!EEV: 2020-12-14
!!!ENC: Andrzej Kubiczek
!!!END: 2020-06-20
